X:88
T:Can't You Hilo
M:2/4
L:1/8
Q:1/4=120
K:E
GE GE|GA F2|FF  F>E|G B3|
GE EC|EE C2|B,D F>A|G E3||
